!!!COM: Chopin, Fr&egrave;d&egrave;ric
!!!OTL: Waltz in A-flat major
!!!SCT: Op. 42
**kern	**kern
*staff2	*staff1
*Ipiano	*Ipiano
*clefF4	*clefG2
*k[b-e-a-d-]	*k[b-e-a-d-]
*M3/4	*M3/4
=1-	=1-
*	*^
2.r	[2.e-/	16f
.	.	16e-
.	.	16f
.	.	16e-
.	.	16f
.	.	16e-
.	.	16f
.	.	16e-
.	.	16f
.	.	16e-
.	.	16f
.	.	16e-
=2	=2	=2
2.r	2.e-/_	16f
.	.	16e-
.	.	16f
.	.	16e-
.	.	16f
.	.	16e-
.	.	16f
.	.	16e-
.	.	16f
.	.	16e-
.	.	16f
.	.	16e-
=3	=3	=3
2.r	2.e-/_	16f
.	.	16e-
.	.	16f
.	.	16e-
.	.	16f
.	.	16e-
.	.	16f
.	.	16e-
.	.	16f
.	.	16e-
.	.	16f
.	.	16e-
*	*v	*v
=4	=4
!!linebreak:original
*	*^
2.r	2.e-/_	16f
.	.	16e-
.	.	16f
.	.	16e-
.	.	16f
.	.	16e-
.	.	16f
.	.	16e-
.	.	16f
.	.	16e-
.	.	16f
.	.	16e-
=5	=5	=5
4r	2.e-/_	16f
.	.	16e-
.	.	16f
.	.	16e-
4r	.	16f
.	.	16e-
.	.	16f
.	.	16e-
(4F\ 4d-\	.	16f
.	.	16e-
.	.	16f
.	.	16e-
=6	=6	=6
2D-\ 2B-\	2.e-/_	16f
.	.	16e-
.	.	16f
.	.	16e-
.	.	16f
.	.	16e-
.	.	16f
.	.	16e-
4E-\ 4c\	.	16f
.	.	16e-
.	.	16f
.	.	16e-
*	*v	*v
=7	=7
!!linebreak:original
*	*^
2.C\ 2.A-\	2.e-/_	16f
.	.	16e-
.	.	16f
.	.	16e-
.	.	16f
.	.	16e-
.	.	16f
.	.	16e-
.	.	16f
.	.	16e-
.	.	16f
.	.	16e-
=8	=8	=8
[4BB-\) [4G\	2.e-/]	16f
.	.	16e-
.	.	16f
.	.	16e-
*^	*	*
4r	2BB-] 2G]	.	16f
.	.	.	16e-
.	.	.	16f
.	.	.	16e-
4r	.	.	16f
.	.	.	16e-
.	.	.	16d
.	.	.	16e-
*v	*v	*	*
=9	=9	=9
4AA-'/	(4cc^/	8cc\L
.	.	8dn\
4E-\ 4A-\ 4c\	8r	8e-\
.	4dd-^/	8dd-\
4E-\ 4A-\ 4c\	.	8en\
.	8r	8f\J
=10	=10	=10
4EE-'/	4cc^/	8cc\L
.	.	8dn\
4E-\ 4G\	8r	8e-\
.	4b-^/	8b-\
4E-\ 4G\	.	8c\
.	8r	8d-\J
*	*v	*v
=11	=11
!!linebreak:original
*	*^
4EEn'/	4b-^/	8b-\L
.	.	8c\
4D-\ 4G\	8r	8d-\
.	4cc^/	8cc\
4D-\ 4G\	.	8dn\
.	8r	8e-\J
=12	=12	=12
4FF'/	4b-^/	8b-\L
.	.	8c\
4C\ 4A-\	8r	8d-\
.	4a-^/	8a-\
4C\ 4A-\	.	8Bn\
.	8r	8c\J
=13	=13	=13
4DDn'/	4g^/	8g\L
.	.	8A#\
4Dn\ 4A-\	8r	8Bn\
.	4f^/	8f\
4D\ 4A-\	.	8A#\
.	8r	8B\J
=14	=14	=14
4EE-'/	4e-^/	8e-\L
.	.	8Bn\
4E-\ 4A-\	8r	8c\
.	4a-^/	8a-\
4E-\ 4A-\	.	8B\
.	8r	8c\J
=15	=15	=15
4EE-'/	4e-^/	8e-\L
.	.	8c\
4E-\ 4G\	8r	8d-\
.	4b-^/	8b-\
4E-\ 4G\	.	8c\
.	8r	8d-\J
*	*v	*v
=16	=16
!!linebreak:original
*	*^
4AA-'/	4e-^/	8e-\L
.	.	8Bn\
4E-\ 4A-\	8r	8c\
.	4cc^/	8cc\
4E-\ 4A-\	.	8dn\
.	8r	8e-\J
*	*v	*v
=17	=17
!!pagebreak:original
*	*^
4AA-'/	4cc^/	8cc\L
.	.	8en\
4F\ 4c\	8r	8f\
.	4dd-^/	8dd-\
4F\ 4c\	.	8e\
.	8r	8f\J
=18	=18	=18
4GG'/	4cc^/	8cc\L
.	.	8en\
4D-\ 4B-\	8r	8f\
.	4b-^/	8b-\
4D-\ 4B-\	.	8e\
.	8r	8f\J
=19	=19	=19
4CC'/	4b-^/	8b-\L
.	.	8d#\
4C\ 4G\ 4B-\	8r	8en\
.	4cc^/	8cc\
4C\ 4G\ 4B-\	.	8d#\
.	8r	8e\J
=20	=20	=20
4FF'/	4b-^/	8b-\L
.	.	8en\
4C\ 4A-\	8r	8f\
.	4a-^/	8a-\
4C\ 4A-\	.	8e\
.	8r	8f\J
=21	=21	=21
4DDn'/	4g^/	8g\L
.	.	8A#\
4Dn\ 4A-\	8r	8Bn\
.	4f^/	8f\
4D\ 4A-\	.	8A#\
.	8r	8B\J
*	*v	*v
=22	=22
!!linebreak:original
*	*^
4EE-'/	4e-^/	8e-\L
.	.	8Bn\
4E-\ 4A-\	8r	8c\
.	4a-^/	8a-\
4E-\ 4A-\ 4c\	.	8dn\
.	8r	8e-\J
*	*v	*v
=23	=23
!!linebreak:original
*	*^
4EE-'/	4cc^/	8cc\L
.	.	8dn\
4E-\ 4G\	8r	8e-\
.	4b-^/	8b-\
4E-\ 4G\	.	8c\
.	8r	8d-\J
=24	=24	=24
4AA-\ 4E-\ 4A-\	4a-^/	8a-\L
.	.	8c\
4r	8r	8e-\
.	4r	8a-\
4r	.	8cc\
.	8r	8ee-\J)
=25	=25	=25
4A-'/	(4ccc^/	8ccc\L
.	.	8ddn\
4e-/ 4a-/ 4cc/	8r	8ee-\
.	4ddd-^/	8ddd-\
4e-/ 4a-/ 4cc/	.	8een\
.	8r	8ff\J
=26	=26	=26
4E-'\	4ccc^/	8ccc\L
.	.	8ddn\
4B-\ 4d-\ 4g\	8r	8ee-\
.	4bb-^/	8bb-\
4B-\ 4d-\ 4g\	.	8cc\
.	8r	8dd-\J
=27	=27	=27
4En'\	4bb-^/	8bb-\L
.	.	8cc\
4B-\ 4d-\ 4g\	8r	8dd-\
.	4ccc^/	8ccc\
4B-\ 4d-\ 4g\	.	8ddn\
.	8r	8ee-\J
*	*v	*v
=28	=28
!!linebreak:original
*	*^
4F'\	4bb-^/	8bb-\L
.	.	8cc\
4A-\ 4c\ 4a-\	8r	8dd-\
.	4aa-^/	8aa-\
4A-\ 4c\ 4a-\	.	8bn\
.	8r	8cc\J
*	*v	*v
=29	=29
!!linebreak:original
*	*^
4Dn'\	4gg^/	8gg\L
.	.	8a#\
4A-\ 4Bn\ 4f\	8r	8bn\
.	4ff^/	8ff\
4A-\ 4B\ 4f\	.	8a#\
.	8r	8b\J
=30	=30	=30
4E-'\	4ee-^/	8ee-\L
.	.	8bn\
4A-\ 4c\ 4e-\	8r	8cc\
.	4aa-^/	8aa-\
4A-\ 4c\ 4e-\	.	8b\
.	8r	8cc\J
=31	=31	=31
4E-'\	4ee-^/	8ee-\L
.	.	8cc\
4B-\ 4e-\ 4g\	8r	8dd-\
.	4bb-^/	8bb-\
4B-\ 4e-\ 4g\	.	8cc\
.	8r	8dd-\J
=32	=32	=32
4A-'/	4ee-^/	8ee-\L
.	.	8bn\
4e-/ 4a-/	8r	8cc\
.	4ccc^/	8ccc\
4e-/ 4a-/	.	8ddn\
.	8r	8ee-\J
=33	=33	=33
4A-'/	4ccc^/	8ccc\L
.	.	8een\
4c/ 4f/ 4a-/	8r	8ff\
.	4ddd-^/	8ddd-\
4c/ 4f/ 4a-/	.	8ee\
.	8r	8ff\J
*	*v	*v
=34	=34
!!linebreak:original
*	*^
4G'/	4ccc^/	8ccc\L
.	.	8een\
4d-/ 4f/ 4b-/	8r	8ff\
.	4bb-^/	8bb-\
4d-/ 4f/ 4b-/	.	8ee\
.	8r	8ff\J
*	*v	*v
=35	=35
!!pagebreak:original
*	*^
4C'/	4bb-^/	8bb-\L
.	.	8dd#\
4B-\ 4c\ 4g\	8r	8een\
.	4ccc^/	8ccc\
4B-\ 4c\ 4g\	.	8dd#\
.	8r	8ee\J
=36	=36	=36
4F'\	4bb-^/	8bb-\L
.	.	8een\
4A-\ 4c\ 4f\	8r	8ff\
.	4aa-^/	8aa-\
4A-\ 4c\ 4f\	.	8ee\
.	8r	8ff\J
=37	=37	=37
4Dn'\	4gg^/	8gg\L
.	.	8a#\
4A-\ 4Bn\ 4f\	8r	8bn\
.	4ff^/	8ff\
4A-\ 4B\ 4f\	.	8a#\
.	8r	8b\J
=38	=38	=38
4E-'\	4ee-^/	8ee-\L
.	.	8bn\
4A-\ 4c\ 4e-\	8r	8cc\
.	4aa-^/	8aa-\
4A-\ 4c\ 4e-\	.	8ddn\
.	8r	8ee-\J
=39	=39	=39
4EE-'/	4ccc^/	8ccc\L
.	.	8ddn\
4G\ 4d-\ 4e-\	8r	8ee-\
.	4bb-^/	8bb-\
4G\ 4d-\ 4e-\	.	8cc\
.	8r	8dd-\J
*	*v	*v
=40	=40
!!linebreak:original
4AA-'/	4cc\) 4aa-\
4E-\ 4c\	4r
*	*^
4r	4a-~/	20a-
.	.	20b-
.	.	20a-
.	.	20b-
.	.	20a-
*	*v	*v
=41	=41
!!linebreak:original
4EE-'/	(8g~\L
.	8dd-\
4d-\ 4e-\ 4g\	8ee-\
.	8gg\
4d-\ 4e-\ 4g\	8ddd-\
.	8fff\J
=42	=42
4A-'/	8dddn\L
.	8eee-\
4c/ 4e-/ 4a-/	8fff\
.	8eee-\
4c/ 4e-/ 4a-/	8aaa-\
.	8aa-\J
=43	=43
4E-'\	8fff\L
.	8eee-\
4d-\ 4e-\ 4g\	8ddd-\
.	8gg\
4d-\ 4e-\ 4g\	8ff\
.	8ee-\J
=44	=44
4AA-'/	8ddn\L
.	8ee-\
4c\ 4e-\	8ff\
.	8ee-\
4c\ 4e-\	8aa-\
.	8a-\J)
=45	=45
4EE-/	(8g\L
.	8dd-\
4d-\ 4e-\ 4g\	8ee-\
.	8gg\
4d-\ 4e-\ 4g\	8ddd-\
.	8fff\J
=46	=46
!!linebreak:original
4A-'/	8dddn\L
.	8eee-\
4e-/ 4g-/ 4cc/	8fff\
.	8eee-\
4An'/	8cccc\
.	8ccc\J
=47	=47
!!linebreak:original
4B-/	8fff\L
.	8eee-\
4e-/ 4gn/ 4dd-/	8ddd-\
.	8gg\
*clefF4	*
4E-\	8ff\
.	8ee-\J
=48	=48
4A-\	8dd-/L
.	8cc/
4c\ 4e-\	8b-/
.	8a-/
4Dn\ 4c-\	8g/
.	8f/J)
=49	=49
4EE-'/	(8e-\L
.	8g\
4d-\ 4e-\	8dd-\
.	8ee-\
4d-\ 4e-\ 4g\	8gg\
.	8fff\J
=50	=50
4A-'/	8dddn\L
.	8eee-\
4c/ 4e-/ 4a-/	8fff\
.	8eee-\
4c/ 4e-/ 4a-/	8aaa-\
.	8aa-\J
=51	=51
*clefF4	*
4E-'\	8fff\L
.	8eee-\
4d-\ 4e-\ 4g\	8ddd-\
.	8gg\
4d-\ 4e-\ 4g\	8ff\
.	8ee-\J
=52	=52
!!linebreak:original
4AA-'/	8ddn\L
.	8ee-\
4c\ 4e-\	8ff\
.	8ee-\
4c\ 4e-\	8aa-\
.	8a-\J)
=53	=53
!!pagebreak:original
4EE-/	(8g\L
.	8dd-\
4d-\ 4e-\ 4g\	8ee-\
.	8gg\
4d-\ 4e-\ 4g\	8ddd-\
.	8fff\J
=54	=54
4A-'/	8dddn\L
.	8eee-\
4e-/ 4g-/ 4cc/	8fff\
.	8eee-\
4An'/	8cccc\
.	8ccc\J
=55	=55
4B-'/	8fff\L
.	8fff-\
4e-/ 4gn/ 4dd-/	8eee-\
.	8ddd-\
4r	8gg\
.	8ffn\J
=56	=56
2.r	8ff-\L
.	8ee-\
.	8dd-\
.	8g\
.	8fn\
.	8f-\J)
=57	=57
*clefF4	*
4AA-/	(4e-/
(4A-\	4c/
4E-\	12a-/L
.	12b-/
.	12a-/J
=58	=58
!!linebreak:original
*	*^
4EE-'/)	2.g^/	4g\
(4B-\	.	4d-/
4E-\	.	4dd-'/ 4ff'/
=59	=59	=59
4EE-'/)	2.g^/	4g\
(4B-\	.	4d-/
4E-\	.	4cc'/ 4ee-'/
*	*v	*v
=60	=60
!!linebreak:original
4AA-'/)	8g/L
.	8c/
(4A-\	8g/
.	8a-/
4E-\	8cc/
.	8a-/J
=61	=61
4AA-'/)	4e-/
(4A-\	4c/
4F\	12a-/L
.	12b-/
.	12a-/J
=62	=62
*	*^
4EE-'/)	2.g^/	4g\
(4B-\	.	4d-/
4E-\	.	4dd-'/ 4ff'/
=63	=63	=63
4EE-'/)	2.g^/	4g\
(4B-\	.	4d-/
4E-\	.	4cc'/ 4ee-'/
*	*v	*v
=64	=64
4AA-/	2c/ 2a-/
4A-\	.
4D-^\	4d-^/ [4f^/
=65	=65
*	*^
4AA-~/)	4f/]	[2.c~\
(4A-\	4e-/	.
4E-\	12a-/L	.
.	12b-/	.
.	12a-/J	.
=66	=66	=66
4EE-'/)	2.g/	4c\]
(4B-\	.	4d-\
4E-\	.	4dd-'\ 4ff'\
*	*v	*v
=67	=67
!!linebreak:original
*	*^
4EE-'/)	2.g/	4g\
(4B-\	.	4d-/
4E-\	.	4cc'/ 4ee-'/
*	*v	*v
=68	=68
4AA-'/)	8g/L
.	8c/
(4A-\	8g/
.	8a-/
4E-\	8cc/
.	8a-/J
=69	=69
!!pagebreak:original
4AA-'/)	4e-/
(4A-\	4c/
4F\	12a-/L
.	12b-/
.	12a-/J
=70	=70
*	*^
4EE-'/)	2.g/	4g\
(4B-\	.	4d-/
4E-\	.	4dd-'/ 4ff'/
=71	=71	=71
4EE-'/)	2.g/	4g\
(4B-\	.	4d-/
4E-\	.	4cc'/ 4ee-'/
*	*v	*v
=72	=72
4AA-'/)	4c/) 4a-/
4E-\ 4A-\ 4e-\	4r
*	*^
4r	4a-~/	20a-
.	.	20b-
.	.	20a-
.	.	20b-
.	.	20a-
*	*v	*v
=73	=73
4EE-'/	(8g~\L
.	8dd-\
4d-\ 4e-\ 4g\	8ee-\
.	8gg\
4d-\ 4e-\ 4g\	8ddd-\
.	8fff\J
=74	=74
4A-'/	8dddn\L
.	8eee-\
4c/ 4e-/ 4a-/	8fff\
.	8eee-\
4c/ 4e-/ 4a-/	8aaa-\
.	8aa-\J
=75	=75
!!linebreak:original
4E-'\	8fff\L
.	8eee-\
4d-\ 4e-\ 4g\	8ddd-\
.	8gg\
4d-\ 4e-\ 4g\	8ff\
.	8ee-\J
=76	=76
4AA-'/	8ddn\L
.	8ee-\
4c\ 4e-\	8ff\
.	8ee-\
4c\ 4e-\	8aa-\
.	8a-\J)
=77	=77
!!linebreak:original
4EE-/	(8g\L
.	8dd-\
4d-\ 4e-\ 4g\	8ee-\
.	8gg\
4d-\ 4e-\ 4g\	8ddd-\
.	8fff\J
=78	=78
4A-'/	8dddn\L
.	8eee-\
4e-/ 4g-/ 4cc/	8fff\
.	8eee-\
4An'/	8cccc\
.	8ccc\J
=79	=79
4B-/	8fff\L
.	8eee-\
4e-/ 4gn/ 4dd-/	8ddd-\
.	8gg\
*clefF4	*
4E-\	8ff\
.	8ee-\J
=80	=80
4A-\	8dd-/L
.	8cc/
4c\ 4e-\	8b-/
.	8a-/
4Dn\ 4c-\	8g/
.	8f/J)
=81	=81
4EE-'/	(8e-\L
.	8g\
4d-\ 4e-\	8dd-\
.	8ee-\
4d-\ 4e-\ 4g\	8gg\
.	8fff\J
=82	=82
!!linebreak:original
4A-'/	8dddn\L
.	8eee-\
4c/ 4e-/ 4a-/	8fff\
.	8eee-\
4c/ 4e-/ 4a-/	8aaa-\
.	8aa-\J
=83	=83
!!linebreak:original
4E-'\	8fff\L
.	8eee-\
4d-\ 4e-\ 4g\	8ddd-\
.	8gg\
4d-\ 4e-\ 4g\	8ff\
.	8ee-\J
=84	=84
4AA-'/	8ddn\L
.	8ee-\
4c\ 4e-\	8ff\
.	8ee-\
4c\ 4e-\	8aa-\
.	8a-\J)
=85	=85
4EE-/	(8g\L
.	8dd-\
4d-\ 4e-\ 4g\	8ee-\
.	8gg\
4d-\ 4e-\ 4g\	8ddd-\
.	8fff\J
=86	=86
4A-'/	8dddn\L
.	8eee-\
4e-/ 4g-/ 4cc/	8fff\
.	8eee-\
4An'/	8cccc\
.	8ccc\J
=87	=87
4B-'/	8fff\L
.	8fff-\
4e-/ 4gn/ 4dd-/	8eee-\
.	8ddd-\
4r	8gg\
.	8ffn\J
=88	=88
!!linebreak:original
2.r	8ff-\L
.	8ee-\
.	8dd-\
.	8g\
.	8fn\
.	8f-\J)
=89	=89
!!pagebreak:original
4AA-'/	(2.A-^/ 2.e-^/
4G-\ 4c\	.
4G-\ 4c\	.
=90	=90
4DD-'/	4.d-^/ 4.f^/
4D-\ 4A-\	.
.	8A-/L 8e-/
4BB-/	8F/ 8d-/
.	8A-/J 8c/
=91	=91
4EE-'/	4G/) 4B-/
4E-\ 4B-\ 4d-\	8r
.	(8g\L 8ff\
4E-\ 4G\ 4d-\	8b-\) 8ee-\
.	16r
.	(16e-\Jk 16dd-\
=92	=92
4AA-'/	4a-\) 4cc\
4E-\ 4A-\	8r
.	(8c/L 8b-/
4E-\ 4A-\ 4c\	8e-/) 8a-/
.	16r
.	16f/Jk
=93	=93
4AA-'/	(2.A-^/ 2.e-^/
4G-\ 4c\	.
4G-\ 4c\	.
=94	=94
4DD-'/	4.d-^/ 4.f^/
4D-\ 4A-\	.
.	8A-/L 8e-/
4BB-/	8F/ 8d-/
.	8A-/J 8c/
=95	=95
!!linebreak:original
4EE-'/	4G/) 4B-/
4E-\ 4G\ 4d-\	8.r
.	(16f-\ 16b-\ 16dd-\ 16ff-\
4E-\ 4A-\ 4d-\	4f-\ 4b-\ 4dd-\ 4ff-\
=96	=96
4E-'\ 4G'\ 4d-'\	4e-'\) 4b-'\ 4dd-'\ 4ee-'\
4A-\ 4B-\ 4d-\	8.r
.	16f-\ 16b-\ 16dd-\ 16ff-\
4G\ 4B-\ 4d-\	4e-^/ 4b-^/ 4dd-^/ 4ee-^/
=97	=97
!!linebreak:original
4AA-'/	(2.a-^\ 2.ee-^\
4A-\ 4c\ 4g-\	.
4A-\ 4c\ 4g-\	.
=98	=98
4D-'\	4.dd-^\ 4.ff^\
4A-\ 4d-\ 4f\	.
.	8a-\L 8ee-\
4B-\ 4d-\	8f\ 8dd-\
.	8a-\J 8cc\
=99	=99
4EE-'/ 4E-'/	4g/) 4b-/
*clefG2	*
4e-/ 4b-/ 4dd-/	8r
.	(8gg\L 8fff\
4e-/ 4g/ 4dd-/	8bb-\) 8eee-\
.	16r
.	(16ee-\Jk 16ddd-\
=100	=100
4A-'/	4aa-\) 4ccc\
4c/ 4e-/ 4a-/	8r
.	(8cc\L 8bb-\
4d-/ 4f/ 4a-/	8ff\) 8aa-\
.	16r
.	16dd-\Jk 16ff\
=101	=101
4AA-'\ 4A-'\	(2.a-^\ 2.ee-^\
4A-\ 4c\ 4g-\	.
4A-\ 4c\ 4g-\	.
=102	=102
4D-'\	4.dd-^\ 4.ff^\
4A-\ 4d-\ 4f\	.
.	8a-\L 8ee-\
.	a-q/
.	ee-q/
4A-\ 4B-\ 4d-\	8f\ 8dd-\
.	8a-\J 8cc\
=103	=103
!!linebreak:original
4EE-'/ 4E-'/	4e-/) 4b-/
4A-\ 4B-\ 4d-\ 4f-\	8.r
.	(16ff-\ 16bb-\ 16ddd-\ 16fff-\
4A-^\ 4B-^\ 4d-^\ 4f-^\	4ff-\ 4bb-\ 4ddd-\ 4fff-\
=104	=104
!!pagebreak:original
4G'\ 4B-'\ 4d-'\ 4e-'\	4ee-'\) 4bb-'\ 4ddd-'\ 4eee-'\
4A-\ 4B-\ 4d-\ 4f-\	8.r
.	16ff-\ 16bb-\ 16ddd-\ 16fff-\
4A-\ 4B-\ 4d-\ 4f-\	4ff-^\ 4bb-^\ 4ddd-^\ 4fff-^\
=105	=105
4EE-'/	(8g\L
.	8dd-\
4d-\ 4e-\ 4g\	8ee-\
.	8gg\
4d-\ 4e-\ 4g\	8ddd-\
.	8fff\J
=106	=106
4A-'/	8dddn\L
.	8eee-\
4c/ 4e-/ 4a-/	8fff\
.	8eee-\
4c/ 4e-/ 4a-/	8aaa-\
.	8aa-\J
=107	=107
4E-'\	8fff\L
.	8eee-\
4d-\ 4e-\ 4g\	8ddd-\
.	8gg\
4d-\ 4e-\ 4g\	8ff\
.	8ee-\J
=108	=108
4AA-'/	8ddn\L
.	8ee-\
4c\ 4e-\	8ff\
.	8ee-\
4c\ 4e-\	8aa-\
.	8a-\J)
=109	=109
!!linebreak:original
4EE-/	(8g\L
.	8dd-\
4d-\ 4e-\ 4g\	8ee-\
.	8gg\
4d-\ 4e-\ 4g\	8ddd-\
.	8fff\J
=110	=110
!!linebreak:original
4A-'/	8dddn\L
.	8eee-\
4e-/ 4g-/ 4cc/	8fff\
.	8eee-\
4An'/	8cccc\
.	8ccc\J
=111	=111
4B-/	8fff\L
.	8eee-\
4e-/ 4gn/ 4dd-/	8ddd-\
.	8gg\
*clefF4	*
4E-\	8ff\
.	8ee-\J
=112	=112
4A-\	8dd-/L
.	8cc/
4c\ 4e-\	8b-/
.	8a-/
4Dn\ 4c-\	8g/
.	8f/J)
=113	=113
4EE-'/	(8e-\L
.	8g\
4d-\ 4e-\	8dd-\
.	8ee-\
4d-\ 4e-\ 4g\	8gg\
.	8fff\J
=114	=114
!!linebreak:original
4A-'/	8dddn\L
.	8eee-\
4c/ 4e-/ 4a-/	8fff\
.	8eee-\
4c/ 4e-/ 4a-/	8aaa-\
.	8aa-\J
=115	=115
4E-'\	8fff\L
.	8eee-\
4d-\ 4e-\ 4g\	8ddd-\
.	8gg\
4d-\ 4e-\ 4g\	8ff\
.	8ee-\J
=116	=116
!!linebreak:original
4AA-'/	8ddn\L
.	8ee-\
4c\ 4e-\	8ff\
.	8ee-\
4c\ 4e-\	8aa-\
.	8a-\J)
=117	=117
4EE-/	(8g\L
.	8dd-\
4d-\ 4e-\ 4g\	8ee-\
.	8gg\
4d-\ 4e-\ 4g\	8ddd-\
.	8fff\J
=118	=118
4A-'/	8dddn\L
.	8eee-\
4e-/ 4g-/ 4cc/	8fff\
.	8eee-\
4An'/	8cccc\
.	8ccc\J
=119	=119
4B-'/	8fff\L
.	8fff-\
4e-/ 4gn/ 4dd-/	8eee-\
.	8ddd-\
4r	8gg\
.	8ffn\J
=120	=120
!!linebreak:original
2.r	8ff-\L
.	8ee-\
.	8dd-\
.	8g\
.	8fn\
.	8f-\J)
=121	=121
!!pagebreak:original
4AA-'/	([2.e-/
4C\ 4F#\ 4c\	.
4C\ 4F#\ 4c\	.
=122	=122
4GG'/	8e-/L]
.	8dn/
(4Dn\ 4G\ 4c\	8c#/
.	8d/
4D\) 4Fn\ 4G\ 4Bn\	8f/
.	8e-/J
=123	=123
4CC'/	2dn/
4E-\ 4G\	.
4E-\ 4G\	4c/)
=124	=124
4FF'/	4r
4F\ 4An\ 4e-\	4r
4F\ 4A\ 4e-\	(4g/
=125	=125
4BB-'/	2.g/
4F\ 4B-\ 4e-\	.
4F\ 4B-\ 4e-\	.
=126	=126
4BB-'/	4f/
4A-\ 4B-\ 4dn\	4g/
4A-\ 4B-\ 4d\	4a-/
=127	=127
!!linebreak:original
4EE-'/	2.b-\
4E-\ 4A-\ 4d-\	.
4E-\ 4A-\ 4d-\	.
=128	=128
4EE-'/	2.e-/)
4E-\ 4G\ 4d-\	.
4E-\ 4G\ 4d-\	.
=129	=129
4AA-'/	(2.cc\
4E-\ 4A-\ 4c\	.
4E-\ 4A-\ 4c\	.
=130	=130
!!linebreak:original
4C'/	2b-\
4G\ 4c\ 4en\	.
4G\ 4c\ 4e\	4cc\
=131	=131
*^	*
4F/	2.F\	2.a-/
4A-/ 4c/ 4f/	.	.
4A-/ 4c/ 4f/	.	.
=132	=132	=132
4Dn/	2.D\	2f/
4A-/ 4Bn/	.	.
4A-/ 4B/	.	4g/
=133	=133	=133
4E-/	2.E-\	2.e-/
4A-/ 4c/	.	.
4A-/ 4c/	.	.
*v	*v	*
=134	=134
4EE-'/	4f/
4E-\ 4G\ 4d-\	4e-/
4E-\ 4G\ 4d-\	4B-/
=135	=135
*^	*
4AA-/	2.AA-\	[2.c/
4E-/ 4A-/	.	.
4E-/ 4A-/	.	.
*v	*v	*
=136	=136
4FF#'/	2c/]) 2e-/
4E-\ 4A-\	.
4E-\ 4A-\	(4e-/
=137	=137
!!linebreak:original
4GG'/	2.c/ 2.e-/
4C\ 4G\	.
4C\ 4G\	.
=138	=138
4GGG'/	12Bn/L 12dn/
.	12e-/
.	12d/J
4F\	8A#/L 8c#/
.	8B/ 8d/
4Dn\ 4Bn\	8A-/ 8f/
.	8G/J 8e-/
=139	=139
!!pagebreak:original
4CC'/	2F/ 2dn/
4C\ 4G\	.
4C\ 4G\	[4E-/ [4c/
=140	=140
4FF'/	4E-/]) 4c/]
4F\ 4c\	4r
4F\ 4c\	(4An/ 4e-/ 4g/
=141	=141
.	[A-q/
4BBB-'/	2A-/ 2e-/ 2g/
4BB-\ 4B-\	.
[4BB-\ [4A-\ [4B-\	[4dn/ [4f/
=142	=142
4BB-\] 4A-\] 4B-\]	4d/] 4f/]
4BB-\ 4G\ 4B-\	4e-/ 4g/
4BB-\ 4F\ 4B-\	4dn/ 4a-/
=143	=143
4EE-'/	2.d-/ 2.b-/
4E-\ 4G\ 4d-\	.
4E-\ 4G\ 4d-\	.
=144	=144
4EE-'/	2d-/) 2e-/
4E-\ 4G\ 4d-\	.
4E-\ 4G\ 4d-\	(4e-/
=145	=145
4AA-'/	2.a-\ 2.cc\
4E-\ 4A-\ 4c\	.
4E-\ 4A-\ 4c\	.
=146	=146
!!linebreak:original
4CC'/	2en/ 2b-/
4C\ 4G\ 4c\	.
4C\ 4G\ 4c\	4e/ 4cc/
=147	=147
4FF'/	2.f/ 2.a-/
4F\ 4c\	.
4F\ 4c\	.
=148	=148
4DDn'/	2Bn/ 2f/
4Dn\ 4A-\	.
4D\ 4A-\	4B/) 4g/
=149	=149
!!linebreak:original
4EE-'/	(4c/ 4e-/
4E-\ 4A-\	4e-/ 4a-/
4E-\ 4A-\ 4c\	4a-\ 4cc\
=150	=150
4EE-'/	4dd-\ 4ff\
4E-\ 4G\ 4d-\	4b-\ 4ee-\
4E-\ 4G\ 4d-\	4e-/ 4b-/
=151	=151
4AA-'/	2.a-\ 2.cc\
4E-\ 4A-\ 4c\	.
4E-\ 4A-\ 4c\	.
=152	=152
4AA-'/	2c/) 2e-/
4E-\ 4A-\	.
4E-\ 4A-\	(4c/ 4e-/
=153	=153
4AA-'/	2.a-\ 2.cc\
4E-\ 4A-\ 4c\	.
4E-\ 4A-\ 4c\	.
=154	=154
4CC'/	2en/ 2b-/
4C\ 4G\ 4c\	.
4C\ 4G\ 4c\	4e/ 4cc/
=155	=155
4FF'/	2.f/ 2.a-/
4F\ 4c\	.
4F\ 4c\	.
=156	=156
4DDn'/	2Bn/ 2f/
4Dn\ 4A-\	.
4D\ 4A-\	4B/ 4g/
=157	=157
!!linebreak:original
4EE-'/	4c/ 4e-/
4E-\ 4A-\	4e-/ 4a-/
4E-\ 4A-\ 4c\	4a-/ 4cc/
=158	=158
.	ee-q/
4EE-'/	2e-^/ 2g-^/ 2dd-^/
4E-\ 4An\ 4c\	.
4E-\ 4A\ 4c\	4e-/ 4g-/ 4cc/
=159	=159
!!linebreak:original
*	*^
4EE-'/	2cc/	4d-\ 4f\
4E-\ 4B-\ 4d-\	.	4r
4E-\ 4B-\	4b-/)	4d-\ 4f\
*	*v	*v
=160	=160
.	[16f^q/LL
.	[16bn^q/
.	16ff^q/JJ
4EE-'/	(2f^/ 2b^/ 2ee-^/
4E-\ 4Bn\ 4dn\	.
4E-\ 4B\ 4d\	4f/ 4b/ 4ddn/
=161	=161
4EE-'/	2e-/ 2g/ 2ddn/
4E-\ 4c\	.
4E-\ 4c\	4e-/) 4g/ 4cc/
=162	=162
4EE-/ 4E-/	4g\ 4dd-\ 4ee-\
4E-\ 4B-\ 4d-\ 4e-\	8r
.	(8g\ 8dd-\ 8een\
4B-\ 4d-\ 4en\	4g^\ 4dd-^\ 4ee^\
=163	=163
4EE-/ 4E-/	4f\) 4dd-\ 4ff\
4B-\ 4d-\ 4f\	8r
.	(8dd-\ 8ee-\ 8ff#\
4B-\ 4d-\ 4f#\	4dd-^\ 4ee-^\ 4ff#^\
=164	=164
!!linebreak:original
4EE-/ 4E-/	4cc\) 4ee-\ 4gg\
*clefG2	*
4c/ 4e-/ 4g/	8r
.	8cc\ 8ee-\ 8aa-\
4c/ 4e-/ 4a-/	4cc^\ 4ee-^\ 4aa-^\
=165	=165
4EE-'/	(8g\L
.	8dd-\
4d-\ 4e-\ 4g\	8ee-\
.	8gg\
4d-\ 4e-\ 4g\	8ddd-\
.	8fff\J
=166	=166
!!pagebreak:original
4A-'/	8dddn\L
.	8eee-\
4c/ 4e-/ 4a-/	8fff\
.	8eee-\
4c/ 4e-/ 4a-/	8aaa-\
.	8aa-\J
=167	=167
4E-'\	8fff\L
.	8eee-\
4d-\ 4e-\ 4g\	8ddd-\
.	8gg\
4d-\ 4e-\ 4g\	8ff\
.	8ee-\J
=168	=168
4AA-'/	8ddn\L
.	8ee-\
4c\ 4e-\	8ff\
.	8ee-\
4c\ 4e-\	8aa-\
.	8a-\J)
=169	=169
4EE-/	(8g\L
.	8dd-\
4d-\ 4e-\ 4g\	8ee-\
.	8gg\
4d-\ 4e-\ 4g\	8ddd-\
.	8fff\J
=170	=170
!!linebreak:original
4A-'/	8dddn\L
.	8eee-\
4e-/ 4g-/ 4cc/	8fff\
.	8eee-\
4An'/	8cccc\
.	8ccc\J
=171	=171
4B-/	8fff\L
.	8eee-\
4e-/ 4gn/ 4dd-/	8ddd-\
.	8gg\
*clefF4	*
4E-\	8ff\
.	8ee-\J
=172	=172
!!linebreak:original
4A-\	8dd-/L
.	8cc/
4c\ 4e-\	8b-/
.	8a-/
4Dn\ 4c-\	8g/
.	8f/J)
=173	=173
4EE-'/	(8e-\L
.	8g\
4d-\ 4e-\	8dd-\
.	8ee-\
4d-\ 4e-\ 4g\	8gg\
.	8fff\J
=174	=174
4A-'/	8dddn\L
.	8eee-\
4c/ 4e-/ 4a-/	8fff\
.	8eee-\
4c/ 4e-/ 4a-/	8aaa-\
.	8aa-\J
=175	=175
4E-'\	8fff\L
.	8eee-\
4d-\ 4e-\ 4g\	8ddd-\
.	8gg\
4d-\ 4e-\ 4g\	8ff\
.	8ee-\J
=176	=176
4AA-'/	8ddn\L
.	8ee-\
4c\ 4e-\	8ff\
.	8ee-\
4c\ 4e-\	8aa-\
.	8a-\J)
=177	=177
!!linebreak:original
4EE-/	(8g\L
.	8dd-\
4d-\ 4e-\ 4g\	8ee-\
.	8gg\
4d-\ 4e-\ 4g\	8ddd-\
.	8fff\J
=178	=178
!!pagebreak:original
4A-'/	8dddn\L
.	8eee-\
4e-/ 4g-/ 4cc/	8fff\
.	8eee-\
4An'/	8cccc\
.	8ccc\J
=179	=179
4B-'/	8fff\L
.	8fff-\
4e-/ 4gn/ 4dd-/	8eee-\
.	8ddd-\
4r	8gg\
.	8ffn\J
=180	=180
2.r	8ff-\L
.	8ee-\
.	8dd-\
.	8g\
.	8fn\
.	8f-\J)
=181	=181
*	*^
4AA-'/	(4cc^/	8cc\L
.	.	8dn\
4E-\ 4A-\ 4c\	8r	8e-\
.	4dd-^/	8dd-\
4E-\ 4A-\ 4c\	.	8en\
.	8r	8f\J
*	*v	*v
=182	=182
!!linebreak:original
*	*^
4EE-'/	4cc^/	8cc\L
.	.	8dn\
4E-\ 4G\	8r	8e-\
.	4b-^/	8b-\
4E-\ 4G\	.	8c\
.	8r	8d-\J
=183	=183	=183
4EEn'/	4b-^/	8b-\L
.	.	8c\
4D-\ 4G\	8r	8d-\
.	4cc^/	8cc\
4D-\ 4G\	.	8dn\
.	8r	8e-\J
*	*v	*v
=184	=184
!!linebreak:original
*	*^
4FF'/	4b-^/	8b-\L
.	.	8c\
4C\ 4A-\	8r	8d-\
.	4a-^/	8a-\
4C\ 4A-\	.	8Bn\
.	8r	8c\J
=185	=185	=185
4DDn'/	4g^/	8g\L
.	.	8A#\
4Dn\ 4A-\	8r	8Bn\
.	4f^/	8f\
4D\ 4A-\	.	8A#\
.	8r	8B\J
=186	=186	=186
4EE-'/	4e-^/	8e-\L
.	.	8Bn\
4E-\ 4A-\	8r	8c\
.	4a-^/	8a-\
4E-\ 4A-\	.	8B\
.	8r	8c\J
=187	=187	=187
4EE-'/	4e-^/	8e-\L
.	.	8c\
4E-\ 4G\	8r	8d-\
.	4b-^/	8b-\
4E-\ 4G\	.	8c\
.	8r	8d-\J
=188	=188	=188
4AA-'/	4e-^/	8e-\L
.	.	8Bn\
4E-\ 4A-\	8r	8c\
.	4cc^/	8cc\
4E-\ 4A-\	.	8dn\
.	8r	8e-\J
*	*v	*v
=189	=189
!!linebreak:original
*	*^
4AA-'/	4cc^/	8cc\L
.	.	8en\
4F\ 4c\	8r	8f\
.	4dd-^/	8dd-\
4F\ 4c\	.	8e\
.	8r	8f\J
*	*v	*v
=190	=190
!!linebreak:original
*	*^
4GG'/	4cc^/	8cc\L
.	.	8en\
4D-\ 4B-\	8r	8f\
.	4b-^/	8b-\
4D-\ 4B-\	.	8e\
.	8r	8f\J
=191	=191	=191
4CC'/	4b-^/	8b-\L
.	.	8d#\
4C\ 4G\ 4B-\	8r	8en\
.	4cc^/	8cc\
4C\ 4G\ 4B-\	.	8d#\
.	8r	8e\J
=192	=192	=192
4FF'/	4b-^/	8b-\L
.	.	8en\
4C\ 4A-\	8r	8f\
.	4a-^/	8a-\
4C\ 4A-\	.	8e\
.	8r	8f\J
=193	=193	=193
4DDn'/	4g^/	8g\L
.	.	8A#\
4Dn\ 4A-\	8r	8Bn\
.	4f^/	8f\
4D\ 4A-\	.	8A#\
.	8r	8B\J
=194	=194	=194
4EE-'/	4e-^/	8e-\L
.	.	8Bn\
4E-\ 4A-\	8r	8c\
.	4a-^/	8a-\
4E-\ 4A-\ 4c\	.	8dn\
.	8r	8e-\J
*	*v	*v
=195	=195
!!linebreak:original
*	*^
4EE-'/	4cc^/	8cc\L
.	.	8dn\
4E-\ 4G\	8r	8e-\
.	4b-^/	8b-\
4E-\ 4G\	.	8c\
.	8r	8d-\J
*	*v	*v
=196	=196
!!pagebreak:original
*	*^
4AA-\ 4E-\ 4A-\	4a-^/	8a-\L
.	.	8c\
4r	8r	8e-\
.	4r	8a-\
4r	.	8cc\
.	8r	8ee-\J)
=197	=197	=197
4A-'/	(4ccc^/	8ccc\L
.	.	8ddn\
4e-/ 4a-/ 4cc/	8r	8ee-\
.	4ddd-^/	8ddd-\
4e-/ 4a-/ 4cc/	.	8een\
.	8r	8ff\J
=198	=198	=198
4E-'\	4ccc^/	8ccc\L
.	.	8ddn\
4B-\ 4d-\ 4g\	8r	8ee-\
.	4bb-^/	8bb-\
4B-\ 4d-\ 4g\	.	8cc\
.	8r	8dd-\J
=199	=199	=199
4En'\	4bb-^/	8bb-\L
.	.	8cc\
4B-\ 4d-\ 4g\	8r	8dd-\
.	4ccc^/	8ccc\
4B-\ 4d-\ 4g\	.	8ddn\
.	8r	8ee-\J
=200	=200	=200
4F'\	4bb-^/	8bb-\L
.	.	8cc\
4A-\ 4c\ 4a-\	8r	8dd-\
.	4aa-^/	8aa-\
4A-\ 4c\ 4a-\	.	8bn\
.	8r	8cc\J
*	*v	*v
=201	=201
!!linebreak:original
*	*^
4Dn'\	4gg^/	8gg\L
.	.	8a#\
4A-\ 4Bn\ 4f\	8r	8bn\
.	4ff^/	8ff\
4A-\ 4B\ 4f\	.	8a#\
.	8r	8b\J
*	*v	*v
=202	=202
!!linebreak:original
*	*^
4E-'\	4ee-^/	8ee-\L
.	.	8bn\
4A-\ 4c\ 4e-\	8r	8cc\
.	4aa-^/	8aa-\
4A-\ 4c\ 4e-\	.	8b\
.	8r	8cc\J
=203	=203	=203
4E-'\	4ee-^/	8ee-\L
.	.	8cc\
4B-\ 4e-\ 4g\	8r	8dd-\
.	4bb-^/	8bb-\
4B-\ 4e-\ 4g\	.	8cc\
.	8r	8dd-\J
=204	=204	=204
4A-'/	4ee-^/	8ee-\L
.	.	8bn\
4e-/ 4a-/	8r	8cc\
.	4ccc^/	8ccc\
4e-/ 4a-/	.	8ddn\
.	8r	8ee-\J
=205	=205	=205
4A-'/	4ccc^/	8ccc\L
.	.	8een\
4c/ 4f/ 4a-/	8r	8ff\
.	4ddd-^/	8ddd-\
4c/ 4f/ 4a-/	.	8ee\
.	8r	8ff\J
=206	=206	=206
4G'/	4ccc^/	8ccc\L
.	.	8een\
4d-/ 4f/ 4b-/	8r	8ff\
.	4bb-^/	8bb-\
4d-/ 4f/ 4b-/	.	8ee\
.	8r	8ff\J
*	*v	*v
=207	=207
!!linebreak:original
*	*^
4C'/	4bb-^/	8bb-\L
.	.	8dd#\
4B-\ 4c\ 4g\	8r	8een\
.	4ccc^/	8ccc\
4B-\ 4c\ 4g\	.	8dd#\
.	8r	8ee\J
*	*v	*v
=208	=208
!!pagebreak:original
*	*^
4F'\	4bb-^/	8bb-\L
.	.	8een\
4A-\ 4c\ 4f\	8r	8ff\
.	4aa-^/	8aa-\
4A-\ 4c\ 4f\	.	8ee\
.	8r	8ff\J
=209	=209	=209
4Dn'\	4gg^/	8gg\L
.	.	8a#\
4A-\ 4Bn\ 4f\	8r	8bn\
.	4ff^/	8ff\
4r	.	8a#\
.	8r	8b\J)
*	*v	*v
=210	=210
(2G\	(2g/
4F\	4f/
=211	=211
2G\	2g/
4F\	4f/
=212	=212
2G\	2g/
B-q/	b-q/
4A-\)	4a-/)
=213	=213
4E-'\	(8g\L
.	8dd-\
*clefG2	*
4d-/ 4e-/ 4b-/	8ee-\
.	8gg\
4d-/ 4e-/ 4b-/	8ddd-\
.	8fff\J
=214	=214
!!linebreak:original
4A-'/	8dddn\L
.	8eee-\
4c/ 4e-/ 4a-/	8fff\
.	8eee-\
4c/ 4e-/ 4a-/	8aaa-\
.	8aa-\J
=215	=215
4E-'\	8fff\L
.	8eee-\
4d-\ 4e-\ 4g\	8ddd-\
.	8gg\
4d-\ 4e-\ 4g\	8ff\
.	8ee-\J
=216	=216
!!linebreak:original
4AA-'/	8ddn\L
.	8ee-\
4c\ 4e-\	8ff\
.	8ee-\
4c\ 4e-\	8aa-\
.	8a-\J)
=217	=217
4E-'\	(8an\L
.	8ee-\
*clefG2	*
4c/ 4e-/ 4an/	8gg-\
.	8aan\
4c/ 4e-/ 4a/	8eee-\
.	8ggg-\J
=218	=218
4B-'/	8eeen\L
.	8fff\
4d-/ 4f/ 4b-/	8ggg-\
.	8fff\
4d-/ 4f/ 4b-/	8bbb-\
.	8bb-\J
=219	=219
4F'\	8ggg-\L
.	8fff\
*clefG2	*
4c/ 4e-/ 4an/	8eee-\
.	8aan\
4c/ 4e-/ 4a/	8gg-\
.	8ff\J
=220	=220
!!linebreak:original
4EE-'/	8een\L
.	8ff\
4B-\ 4d-\ 4f\	8gg-\
.	8ff\
4B-\ 4d-\ 4f\	8bb-\
.	8b-\J)
=221	=221
!!linebreak:original
4EEE-/ 4EE-/	(8cc-\L
.	8ddn\
4r	8ff\
.	8aa-\
4r	8ccc-\
.	8cccc-\J
=222	=222
4dn^/ 4f^/ 4a-^/ 4cc-^/	8bbb-\L
.	8aaa-\
4r	8bbb-\
.	8aaa-\
4r	8ggg\
.	8fff\J
=223	=223
(8gg^\L	8ggg\L
8ff\J)	8fff\
4r	8ggg\
.	8fff\
4r	8eee-\
.	8dddn\J
=224	=224
(8ee-^\L	8eee-\L
8ddn\J)	8dddn\
4r	8eee-\
.	8ddd\
4r	8ddd-\
.	8ccc-\J
=225	=225
!!linebreak:original
(8dd-^\L	8ddd-\L
8cc-\J)	8ccc-\
4r	8ddd-\
.	8ccc-\
4r	8bb-\
.	8aa-\J
=226	=226
!!pagebreak:original
(8b-^/L	8bb-\L
8a-/J)	8aa-\
4r	8bb-\
.	8aa-\
4r	8gg\
.	8ff\J
=227	=227
(8g^/L	8gg\L
8f/J)	8ff\
4r	8ee-\
.	8ddn\
4r	8ee-\
.	8dd\J
=228	=228
2.r	8dd-\L
.	8cc-\
.	8dd-\
.	8cc-\
.	8b-\
.	8a-\J)
=229	=229
4EE-'/	(2.e-^/ 2.b-^/
4E-\ 4G\ 4d-\	.
4E-\ 4G\ 4d-\	.
=230	=230
4AA-'/	4.a-^\ 4.cc^\
4E-\ 4A-\ 4c\	.
.	8e-/L 8b-/
4E-\ 4A-\	8c/ 8a-/
.	16r
.	16d-/Jk 16f/
=231	=231
4EE-'/	4G/) 4e-/
4E-\ 4B-\ 4d-\	8r
.	(8g\L 8ff\
4E-\ 4G\ 4d-\	8b-\) 8ee-\
.	16r
.	(16e-\Jk 16dd-\
=232	=232
!!linebreak:original
4AA-'/	4a-\) 4cc\
4E-\ 4A-\	8r
.	(8c/L 8b-/
4E-\ 4A-\ 4c\	8e-/) 8a-/
.	16r
.	16f/Jk
=233	=233
4EE-'/	(2.e-^/ 2.b-^/
4E-\ 4G\ 4d-\	.
4E-\ 4G\ 4d-\	.
=234	=234
!!linebreak:original
4AA-'/	4.a-^\ 4.cc^\
4E-\ 4A-\ 4c\	.
.	8e-/L 8b-/
4E-\ 4A-\ 4c\	8c/ 8a-/
.	16r
.	16d-/Jk 16f/
=235	=235
4EE-'/	4G/) 4e-/
4B-\ 4d-\ 4e-\ 4g\	8r
.	(8gg\L 8fff\
4B-\ 4d-\ 4e-\ 4g\	8bb-\) 8eee-\
.	16r
.	(16ee-\Jk 16ddd-\
=236	=236
4AA-'/	4aa-\) 4ccc\
*clefG2	*
4c/ 4e-/ 4a-/	8r
.	(8cc\L 8bb-\
4c/ 4e-/ 4a-/	8ee-\) 8aa-\
.	16r
.	(16d#\Jk 16dd#\
=237	=237
4DDn/ 4Dn/	4en/) 4bn/ 4een/
4D\ 4En\ 4G#\ 4Bn\	8.r
.	(16ee\ 16bbn\ 16eeen\
4D\ 4E\ 4G#\ 4B\	4ee\ 4bb\ 4eee\
=238	=238
4.Dn\ 4.En\ 4.G#\ 4.Bn\	4.een\ 4.bbn\ 4.eeen\
8D\ 8E\ 8G#\ 8c#\	8ee\ 8ccc#\ 8eee\
4D\ 4E\ 4G#\ 4B\	4ee\ 4bb\ 4eee\
=239	=239
!!linebreak:original
4Dn'\ 4En'\ 4G#'\ 4Bn'\	4een'\) 4bbn'\ 4eeen'\
4r	4r
*	*clefF4
4r	(8D#\L
.	8En\J
=240	=240
!!pagebreak:original
2.r	8F#\L
.	8G#\
.	8An\
.	8Bn\
.	8c#\
.	8dn\J
=241	=241
*	*clefG2
2.r	8d#/L
.	8en/
.	8f#/
.	8g#/
.	8an/
.	8bn/J
=242	=242
2.r	8cc#\L
.	8ddn\
.	8dd#\
.	8een\
.	8ff#\
.	8gg#\J
=243	=243
!!linebreak:original
2.r	8aan\L
.	8bbn\
.	8ccc#\
.	8dddn\
.	8ddd#\
.	8eeen\J
=244	=244
4C#^\ 4An^\ 4en^\	4aaan^\)
4r	4r
4Dn'\ 4F'\ 4Bn'\	4a-'^\ 4aa-'^\
=245	=245
!!linebreak:original
4EE-'/	(2.e-^/ 2.b-^/
4E-\ 4G\ 4d-\	.
4E-\ 4G\ 4d-\	.
=246	=246
4AA-'/	4.a-^\ 4.cc^\
4E-\ 4A-\ 4c\	.
.	8e-/L 8b-/
4E-\ 4A-\	8c/ 8a-/
.	16r
.	16d-/Jk 16f/
=247	=247
4EE-'/	4G/) 4e-/
4E-\ 4B-\ 4d-\	8r
.	(8g\L 8ff\
4E-\ 4B-\ 4d-\	8b-\) 8ee-\
.	16r
.	(16e-\Jk 16dd-\
=248	=248
4AA-'/	4a-\) 4cc\
4E-\ 4A-\	8r
.	(8c/L 8b-/
4E-\ 4A-\ 4c\	8e-/) 8a-/
.	16r
.	16f/Jk
=249	=249
4DD-'/ 4D-'/	(2.e-^/ 2.b-^/
4E-\ 4G\ 4e-\	.
4E-\ 4G\ 4e-\	.
=250	=250
4CC~/ 4C~/	4.a-^\ 4.cc^\
4E-\ 4A-\ 4e-\	.
.	8e-/L 8b-/
4E-\ 4A-\ 4e-\	8c/ 8a-/
.	16r
.	16d-/Jk 16f/
=251	=251
!!linebreak:original
4BBB-~/ 4BB-~/	4G/) 4e-/
4E-\ 4B-\ 4d-\ 4e-\	8r
.	(8gg\L 8fff\
4E-\ 4B-\ 4d-\ 4e-\	8bb-\) 8eee-\
.	16r
.	(16ee-\Jk 16ddd-\
=252	=252
!!linebreak:original
4AAA-~/ 4AA-~/	4aa-\) 4ccc\
4E-\ 4A-\ 4e-\	8r
.	(8cc\L 8bb-\
4E-\ 4A-\ 4e-\	8ee-\) 8aa-\
.	16r
.	(16ff\Jk
=253	=253
4GGG-^/ 4GG-^/	2.a-\ 2.ee-\ 2.aa-\
4G-\ 4A-\ 4c\ 4e-\	.
4G-\ 4A-\ 4c\ 4e-\	.
=254	=254
4FFF^/ 4FF^/	4.a-\ 4.ee-\ 4.aa-\
4F\ 4A-\ 4d-\ 4f\	.
.	8a-\L 8ee-\ 8aa-\
4F\ 4A-\ 4d-\ 4f\	8a-\) 8dd-\ 8aa-\
.	16r
.	16b-\Jk 16aa-\
=255	=255
4EEE-^/ 4EE-^/	4a-\ 4cc\ 4gg-\ 4aa-\
4E-\ 4A-\ 4c\ 4g-\	8r
.	(8ccc\L 8bbb-\
4E-\ 4A-\ 4c\ 4g-\	8eee-\) 8aaa-\
.	16r
.	(16aa-\Jk 16ggg-\
=256	=256
4DDD-^/ 4DD-^/	4ddd-\) 4fff\
4F\ 4A-\ 4d-\ 4f\	8r
.	(8ff\L 8eee-\
4F\ 4A-\ 4d-\ 4f\	8aa-\J) 8ddd-\
.	16r
.	(16g#\ 16gg#\
=257	=257
!!linebreak:original
4GGGn^/ 4GGn^/	2.an\ 2.een\ 2.aan\
4G\ 4An\ 4c#\ 4en\	.
4G\ 4A\ 4c#\ 4e\	.
=258	=258
!!pagebreak:original
4FFF#^/ 4FF#^/	4.an\ 4.ff#\ 4.aan\
4F#\ 4An\ 4dn\ 4f#\	.
.	8a\L 8een\ 8aa\
4F#\ 4A\ 4d\ 4f#\	8.a\ 8.ddn\ 8.aa\
.	16b-\Jk 16bb-\
=259	=259
4AAA-^/ 4AA-^/	4b-\ 4ddn\ 4ffn\ 4bb-\
4A-\ 4dn\ 4fn\	8r
.	8bn\ 8dd\ 8ff\ 8bbn\
4FFF#^/ 4FF#^/	4b\ 4dd\ 4ff#\ 4bb\
=260	=260
4FFFn^/ 4FFn^/	4bn\ 4ddn\ 4gg\ 4bbn\
4Bn\ 4dn\ 4g\	8r
.	8b\ 8dd\ 8aa-\ 8bb\
4FFF-^/ 4FF-^/	4b\ 4dd\ 4aa-\ 4bb\
=261	=261
4EEE-^/ 4EE-^/	4ee-^\) 4eee-^\
4d-\ 4e-\	(8g\L
.	8dd-\
4d-\ 4e-\ 4g\	8gg\
.	8fff\J
=262	=262
!!linebreak:original
4E-'\	8dddn\L
.	8eee-\
*clefG2	*
4c/ 4e-/ 4a-/	8fff\
.	8eee-\
4c/ 4e-/ 4a-/	8aaa-\
.	8aa-\J
=263	=263
!!linebreak:original
4E-'\	8fff\L
.	8eee-\
4d-\ 4e-\ 4g\	8ddd-\
.	8gg\
4d-\ 4e-\ 4g\	8ff\
.	8ee-\J
=264	=264
4E-'\	8ddn\L
.	8ee-\
4c\ 4e-\	8ff\
.	8ee-\
4c\ 4e-\	8aa-\
.	8a-\J)
=265	=265
4E-'\	(8g\L
.	8dd-\
4d-\ 4e-\ 4g\	8ee-\
.	8gg\
4d-\ 4e-\ 4g\	8ddd-\
.	8fff\J
=266	=266
4E-'\	8dddn\L
.	8eee-\
*clefG2	*
4e-/ 4g-/ 4cc/	8fff\
.	8eee-\
4An'/	8cccc\
.	8ccc\J
=267	=267
!!linebreak:original
4B-/	8fff\L
.	8eee-\
4e-/ 4gn/ 4dd-/	8ddd-\
.	8gg\
*clefF4	*
4E-\	8ff\
.	8ee-\J
=268	=268
4A-\	8dd-/L
.	8cc/
4c\ 4e-\	8b-/
.	8a-/
4Dn\ 4c-\	8g/
.	8f/J)
=269	=269
!!pagebreak:original
4E-'\	(8e-\L
.	8g\
4d-\ 4e-\	8dd-\
.	8ee-\
4d-\ 4e-\ 4g\	8gg\
.	8fff\J
=270	=270
4E-'\	8dddn\L
.	8eee-\
*clefG2	*
4c/ 4e-/ 4a-/	8fff\
.	8eee-\
4c/ 4e-/ 4a-/	8aaa-\
.	8aa-\J
=271	=271
4E-'\	8fff\L
.	8eee-\
4d-\ 4e-\ 4g\	8ddd-\
.	8gg\
4d-\ 4e-\ 4g\	8ff\
.	8ee-\J
=272	=272
4E-'\	8ddn\L
.	8ee-\
*clefG2	*
4c/ 4e-/ 4a-/	8ff\
.	8ee-\
4c/ 4e-/ 4a-/	8aa-\
.	8a-\J)
=273	=273
*clefF4	*
4EE-/ 4E-/	(8g\L
.	8dd-\
4r	8ff\
.	8ee-\
4r	8gg\
.	8ddd-\J
=274	=274
!!linebreak:original
4B-/ 4e-/ 4g/ 4dd-/	8fff\L
.	8eee-\
4r	8ggg\
.	8dddd-\
4r	8ffff\
.	8eeee-\J
=275	=275
!!linebreak:original
2.r	8dddd-\L
.	8ggg\
.	8fff\
.	8eee-\
.	8ddd-\
.	8gg\J
=276	=276
2.r	8ff\L
.	8ee-\
.	8dd-\
.	8g\
.	8f\
.	8e-\J
=277	=277
4AA-/	8a-/L 8cc/
.	8dn/
4E-\ 4A-\ 4c\	8e-/
.	8a-/ 8cc/
4F-^\ 4A-^\ 4c^\	8e-/
.	8f-/J
=278	=278
4AA-/	8a-/L 8cc/
.	8dn/
4E-\ 4A-\ 4c\	8e-/
.	8a-/ 8cc/
4F-^\ 4A-^\ 4c^\	8e-/
.	8f-/J
=279	=279
4AA-/	8a-/L 8cc/
.	8dn/
4E-\ 4A-\ 4c\	8e-/
.	8a-/ 8cc/
4F-^\ 4A-^\ 4c^\	8e-/
.	8f-/J
=280	=280
!!linebreak:original
4AA-/	8a-/L 8cc/
.	8dn/
4E-\ 4A-\ 4c\	8e-/
.	8a-/ 8cc/
4F-^\ 4A-^\ 4c^\	8e-/
.	8f-/J
=281	=281
4AA-/	8a-/L 8cc/
.	8dn/
4E-\ 4A-\ 4c\	8e-/
.	8a-/ 8cc/
4E-\ 4A-\ 4c\	8ddn/
.	8ee-/J
=282	=282
4E-\ 4A-\ 4c\	8aa-\L 8ccc\
.	8ddn\
4E-\ 4A-\ 4c\	8ee-\
.	8aa-\ 8ccc\
4E-\ 4A-\ 4c\	8dddn\
.	8eee-\J)
=283	=283
4E-\ 4A-\ 4c\	(8aaa-\L 8cccc\
.	8eee-\
4r	8ccc\)
*	*^
.	8ee-\	8ee-/
*	*v	*v
4r	(8aa-\ 8ccc\
.	8ee-\J
=284	=284
2r	8cc/L)
.	8e-/
.	(8a-/ 8cc/
.	8e-/
8e-\	8c/)
8E-\	8E-/J
=285	=285
!!linebreak:original
4AAA-/	2.r
4r	.
4r	.
=286	=286
4c^/ 4e-^/ 4a-^/ 4cc^/	4aa-^\ 4eee-^\ 4aaa-^\
4r	4r
4r	4r
=287	=287
4AA-^\ 4E-^\ 4A-^\	4c^/ 4e-^/ 4a-^/ 4cc^/
4r	4r
4r	4r
=288	=288
*	*clefF4
8DDn/L	8Dn/L
8FF/	8F/
8EE-/	8E-/
8BBBn/	8BBn/
8DD-/	8D-/
8CC/J	8C/J
=289	=289
4AAA-/	4AA-/
4r	4r
4r	4r
==	==
*-	*-
